X:1
T:Title
%%score { ( 1 5 6 ) | ( 2 3 4 ) }
L:1/8
M:3/4
K:Bb
V:1 treble nm="Grand Piano"
V:5 treble 
V:6 treble 
V:2 bass 
V:3 bass 
V:4 bass 
V:1
 z2 z[Q:1/4=92] F BA | [Ec]3 B [DF]G | [EA]3 F [EG]A | [Fd]3 c [EG]A | [DB]3 F BA | [Ec]3 B [Ge]d | %6
 [=Ec]3 G [_E^F]G | %7
 [=Ec]3 [Ed] [Ec]B[Q:1/4=89][Q:1/4=86][Q:1/4=83][Q:1/4=81][Q:1/4=78][Q:1/4=75][Q:1/4=72] | %8
[M:3/8] A3 | FGA |[M:3/4][Q:1/4=92] [Dc]4[K:bass][K:treble] z2 | A,A, z c =Bc | d4 z2 | %13
[M:3/8] [DB]3[K:bass] | FGA |[M:3/4] z[K:bass] F, z[K:treble] B [Ge][Fd] | [Gc]4 z2 | %17
 [DBd][FBd] [FBd]2 .[EAc]2[Q:1/4=89][Q:1/4=86][Q:1/4=83][Q:1/4=81][Q:1/4=78][Q:1/4=75][Q:1/4=72] | %18
[M:3/8] [DFB]3 |] %19
V:2
 z2 z D DD | z F, z D z D | z A, z E z E | z A, z E z E | z G, z D DD | z F, z D z F | %6
 z G, z =E z E | z G, C2 G,[C=E] |[M:3/8] [F,CE]3 | z =E[F,_E] |[M:3/4] [B,,F,]B,, z D z F, | %11
 F,F, z E [_A,D][K:treble][=A,E] | F-[F,F-] FE[K:bass] EE |[M:3/8] B,,B,,B,, | z =E[F,_E] | %15
[M:3/4] [B,,F,]B,, z D [B,,B,]2 | [E,B,]E, E,E, E,E, | F,F, F,2 z F |[M:3/8] B,,3 |] %19
V:3
 x6 | z2 B,4 | z2 C4 | z2 C4 | z2 F,2 z2 | z2 B,4 | z2 C4 | C,4 C,2 |[M:3/8] x3 | x3 | %10
[M:3/4] z2 B,,2 B,,2 | z2 F,2 F,2[K:treble] | .[F,B,]2 F,2[K:bass] [F,C]2 |[M:3/8] x3 | x3 | %15
[M:3/4] z2 B,,2 z2 | x6 | z2 z2 F,2 |[M:3/8] x3 |] %19
V:4
 x6 | B,,4 B,,2 | F,4 F,2 | F,4 F,2 | B,,4 z2 | B,,4 B,,2 | C,4 C,2 | x6 |[M:3/8] x3 | x3 | %10
[M:3/4] x6 | x5[K:treble] x | x4[K:bass] x2 |[M:3/8] x3 | x3 |[M:3/4] x6 | x6 | x6 |[M:3/8] x3 |] %19
V:5
 x6 | x6 | x6 | x6 | .B,2 z2 z2 | x6 | x6 | x6 |[M:3/8] x3 | x3 | %10
[M:3/4] z[K:bass] F, z[K:treble] B [B,DF][B,D] | [CE]4 z2 | z B, z c GA |[M:3/8] B,[K:bass]G,F, | %14
 x3 |[M:3/4] [Dc]4[K:bass][K:treble] z2 | z B, B,[_DGB] [DGA][DGB] | x6 |[M:3/8] x3 |] %19
V:6
 x6 | x6 | x6 | x6 | x6 | x6 | x6 | x6 |[M:3/8] x3 | x3 |[M:3/4] z2[K:bass] F,2[K:treble] z2 | %11
 z2 A,2 z2 | z2 A,2 z2 |[M:3/8] x[K:bass] x2 | x3 |[M:3/4] z2[K:bass] F,2[K:treble] z2 | x6 | x6 | %18
[M:3/8] x3 |] %19

